static/assets/img/icons/theme/design/component.svg

<svg height="24" viewBox="0 0 24 24" width="24" xmlns="http://www.w3.org/2000/svg"><g fill="none" fill-rule="evenodd"><path d="m0 0h24v24h-24z" opacity="0"/><path d="m12.7442084 3.27882877 6.503129 3.71607373c.4673625.26706429.7557916.76407944.7557916 1.30236472v7.40546558c0 .5382853-.2884291 1.0353004-.7557916 1.3023647l-6.503129 3.7160737c-.461149.2635137-1.0272678.2635137-1.4884168 0l-6.50312904-3.7160737c-.46736249-.2670643-.75579159-.7640794-.75579159-1.3023647v-7.40546558c0-.53828528.2884291-1.03530043.75579159-1.30236472l6.50312904-3.71607373c.461149-.26351371 1.0272678-.26351371 1.4884168 0zm-.7442084 11.22117123c1.3807119 0 2.5-1.1192881 2.5-2.5s-1.1192881-2.5-2.5-2.5-2.5 1.1192881-2.5 2.5 1.1192881 2.5 2.5 2.5z" fill="#000"/></g></svg>

<svg width="24px" height="24px" viewBox="0 0 24 24" version="1.1" xmlns="http://www.w3.org/2000/svg" xmlns:xlink="http://www.w3.org/1999/xlink">
    <title>Icon For Component</title>
    <g stroke="none" stroke-width="1" fill="none" fill-rule="evenodd">
        <rect opacity="0" x="0" y="0" width="24" height="24"></rect>
        <path d="M12.7442084,3.27882877 L19.2473374,6.9949025 C19.7146999,7.26196679 20.003129,7.75898194 20.003129,8.29726722 L20.003129,15.7027328 C20.003129,16.2410181 19.7146999,16.7380332 19.2473374,17.0050975 L12.7442084,20.7211712 C12.2830594,20.9846849 11.7169406,20.9846849 11.2557916,20.7211712 L4.75266256,17.0050975 C4.28530007,16.7380332 3.99687097,16.2410181 3.99687097,15.7027328 L3.99687097,8.29726722 C3.99687097,7.75898194 4.28530007,7.26196679 4.75266256,6.9949025 L11.2557916,3.27882877 C11.7169406,3.01531506 12.2830594,3.01531506 12.7442084,3.27882877 Z M12,14.5 C13.3807119,14.5 14.5,13.3807119 14.5,12 C14.5,10.6192881 13.3807119,9.5 12,9.5 C10.6192881,9.5 9.5,10.6192881 9.5,12 C9.5,13.3807119 10.6192881,14.5 12,14.5 Z" fill="#000000"></path>
    </g>
</svg>
